dressly/src/assets/icons/account.svg

<svg width="24" height="24" viewBox="0 0 24 24" fill="none" xmlns="http://www.w3.org/2000/svg">
<path fill-rule="evenodd" clip-rule="evenodd" d="M12 2.75C9.65279 2.75 7.75 4.65279 7.75 7C7.75 9.34721 9.65279 11.25 12 11.25C14.3472 11.25 16.25 9.34721 16.25 7C16.25 4.65279 14.3472 2.75 12 2.75ZM6.25 7C6.25 3.82436 8.82436 1.25 12 1.25C15.1756 1.25 17.75 3.82436 17.75 7C17.75 10.1756 15.1756 12.75 12 12.75C8.82436 12.75 6.25 10.1756 6.25 7Z" fill="#1B1314"/>
<path fill-rule="evenodd" clip-rule="evenodd" d="M8.26996 14.25C8.28244 14.25 8.29508 14.25 8.3079 14.25L15.7301 14.25C16.0106 14.25 16.2035 14.2499 16.3856 14.2677C17.6187 14.3879 18.7129 15.1094 19.3091 16.1954C19.3971 16.3558 19.4731 16.5331 19.5835 16.7909L19.5985 16.8258C19.6103 16.8533 19.6219 16.8804 19.6333 16.907C19.8642 17.4455 20.0188 17.8059 20.0927 18.1077C20.6121 20.2277 19.2182 22.3416 17.065 22.6993C16.7585 22.7502 16.3663 22.7501 15.7803 22.75C15.7514 22.75 15.722 22.75 15.6921 22.75H8.3079C8.27802 22.75 8.24863 22.75 8.21971 22.75C7.63373 22.7501 7.24151 22.7502 6.93502 22.6993C4.78185 22.3416 3.38798 20.2277 3.90734 18.1077C3.98127 17.8059 4.13585 17.4455 4.36678 16.9069C4.37818 16.8803 4.38977 16.8533 4.40154 16.8258C4.40659 16.8141 4.41157 16.8024 4.41648 16.791C4.52697 16.5331 4.60293 16.3558 4.69096 16.1954C5.28717 15.1094 6.38133 14.3879 7.61443 14.2677C7.79651 14.2499 7.98939 14.25 8.26996 14.25ZM8.3079 15.75C7.97518 15.75 7.8601 15.7509 7.75994 15.7606C7.02008 15.8327 6.36359 16.2656 6.00586 16.9173C5.95743 17.0055 5.91132 17.1109 5.78025 17.4167C5.50222 18.0655 5.40447 18.3005 5.36426 18.4646C5.05264 19.7366 5.88896 21.0049 7.18086 21.2196C7.34759 21.2473 7.6021 21.25 8.3079 21.25H15.6921C16.3979 21.25 16.6524 21.2473 16.8192 21.2196C18.1111 21.0049 18.9474 19.7366 18.6358 18.4646C18.5956 18.3005 18.4978 18.0655 18.2198 17.4167C18.0887 17.1109 18.0426 17.0055 17.9942 16.9173C17.6364 16.2656 16.98 15.8327 16.2401 15.7606C16.1399 15.7509 16.0249 15.75 15.6921 15.75H8.3079Z" fill="#1B1314"/>
</svg>

<svg xmlns="http://www.w3.org/2000/svg" width="24" height="24" fill="none"><path fill="#1B1314" fill-rule="evenodd" d="M12 2.75a4.25 4.25 0 1 0 0 8.5 4.25 4.25 0 0 0 0-8.5M6.25 7a5.75 5.75 0 1 1 11.5 0 5.75 5.75 0 0 1-11.5 0m2.02 7.25h7.46c.28 0 .473 0 .656.018a3.75 3.75 0 0 1 2.923 1.927c.088.16.164.338.274.596l.016.035.034.081c.231.538.386.899.46 1.2a3.75 3.75 0 0 1-3.028 4.592c-.306.051-.699.051-1.285.051H8.22c-.586 0-.978 0-1.285-.05a3.75 3.75 0 0 1-3.028-4.592c.074-.302.229-.663.46-1.201l.035-.081.014-.035a7 7 0 0 1 .275-.596 3.75 3.75 0 0 1 2.923-1.927c.183-.018.375-.018.656-.018m.038 1.5c-.333 0-.448 0-.548.01a2.25 2.25 0 0 0-1.754 1.157 6 6 0 0 0-.226.5c-.278.648-.376.883-.416 1.048a2.25 2.25 0 0 0 1.817 2.755c.167.027.421.03 1.127.03h7.384c.706 0 .96-.003 1.127-.03a2.25 2.25 0 0 0 1.817-2.755c-.04-.165-.138-.4-.416-1.048a6 6 0 0 0-.226-.5 2.25 2.25 0 0 0-1.754-1.156c-.1-.01-.215-.011-.548-.011z" clip-rule="evenodd"/></svg>
